static/logos/fig-wordmark-color.svg

<svg width="100" height="45" viewBox="0 0 100 45" fill="none" xmlns="http://www.w3.org/2000/svg">
<path fill-rule="evenodd" clip-rule="evenodd" d="M7.01057 0C3.13874 0 0 3.13874 0 7.01057V30.0265C0 33.8983 3.13874 37.037 7.01057 37.037H30.0265C33.8983 37.037 37.037 33.8983 37.037 30.0265V7.01057C37.037 3.13874 33.8983 0 30.0265 0H7.01057ZM23.545 3.96818H28.3069C31.083 3.96818 33.3333 6.21861 33.3333 8.99465V28.0422C33.3333 30.8183 31.083 33.0687 28.3069 33.0687H23.545C20.7689 33.0687 18.5185 30.8183 18.5185 28.0422V8.99465C18.5185 6.21861 20.7689 3.96818 23.545 3.96818Z" fill="black"/>
<path d="M50.4877 34.5931V22.4411H62.7518V17.5623H50.4877V9.03567H63.9155V4.04504H44.4453V34.5931H50.4877Z" fill="black"/>
<path d="M66.9264 34.5931H72.8121V10.8484H66.9264V34.5931ZM66.5234 4.96257C66.5234 5.87266 66.8518 6.61866 67.5083 7.20053C68.1647 7.76747 68.9479 8.05094 69.8581 8.05094C70.7831 8.05094 71.5664 7.76747 72.2079 7.20053C72.8644 6.61866 73.1927 5.87266 73.1927 4.96257C73.1927 4.03755 72.8644 3.29157 72.2079 2.7246C71.5664 2.14273 70.7831 1.85181 69.8581 1.85181C68.9479 1.85181 68.1647 2.14273 67.5083 2.7246C66.8518 3.29157 66.5234 4.03755 66.5234 4.96257Z" fill="black"/>
<path d="M87.5921 38.9573C86.7268 38.9573 85.9658 38.8304 85.3094 38.5767C84.6529 38.338 84.1158 37.9949 83.6981 37.5473C83.2803 37.1147 83.0042 36.6223 82.8699 36.0702H77.1633C77.2825 37.398 77.7227 38.6065 78.4836 39.6958C79.2446 40.7849 80.3708 41.6502 81.8629 42.2917C83.3549 42.9482 85.2347 43.2765 87.5025 43.2765C88.8453 43.2765 90.1657 43.1123 91.4638 42.7841C92.7766 42.4708 93.9627 41.956 95.0221 41.2399C96.0814 40.5237 96.9318 39.5913 97.5733 38.4424C98.2149 37.3086 98.5357 35.9286 98.5357 34.3023V10.8485H92.717V14.3397H92.4708C92.1575 13.6235 91.6725 12.982 91.0162 12.415C90.3745 11.8332 89.5988 11.3781 88.6886 11.0499C87.7934 10.7067 86.8014 10.5352 85.7121 10.5352C83.907 10.5352 82.3255 10.9604 80.9677 11.8108C79.6101 12.6612 78.5507 13.9145 77.7897 15.5706C77.029 17.2117 76.6484 19.2334 76.6484 21.6354V23.1125C76.6484 25.5443 77.029 27.5884 77.7897 29.2445C78.5507 30.9006 79.6101 32.1537 80.9677 33.0043C82.3255 33.8547 83.907 34.2799 85.7121 34.2799C86.5327 34.2799 87.301 34.1828 88.0173 33.9889C88.7482 33.795 89.3973 33.5263 89.9644 33.1832C90.5462 32.84 91.0384 32.4447 91.4414 31.9971C91.8592 31.5347 92.1799 31.0497 92.4036 30.5425H92.6499V33.9217C92.6499 35.5182 92.2023 36.7565 91.3071 37.6369C90.412 38.5171 89.1736 38.9573 87.5921 38.9573ZM87.7264 15.2349C88.726 15.2349 89.5912 15.496 90.3223 16.0182C91.0534 16.5403 91.6203 17.2938 92.0232 18.2785C92.441 19.2632 92.6499 20.4493 92.6499 21.8369V23.2243C92.6499 24.6269 92.4484 25.8204 92.0457 26.805C91.6577 27.7899 91.0907 28.5432 90.3447 29.0654C89.6136 29.5876 88.7408 29.8487 87.7264 29.8487C86.682 29.8487 85.7794 29.595 85.0184 29.0878C84.2725 28.5656 83.6981 27.8123 83.2951 26.8275C82.8923 25.8278 82.6908 24.6269 82.6908 23.2243V21.8369C82.6908 20.4045 82.8923 19.2036 83.2951 18.2337C83.6981 17.249 84.2725 16.503 85.0184 15.9958C85.7794 15.4885 86.682 15.2349 87.7264 15.2349Z" fill="black"/>
</svg>

<svg xmlns="http://www.w3.org/2000/svg" width="142.222" height="64" fill="none" viewBox="0 0 100 45"><path fill="#000" fill-rule="evenodd" d="M7.01 0A7.01 7.01 0 0 0 0 7.01v23.016a7.01 7.01 0 0 0 7.01 7.011h23.016a7.01 7.01 0 0 0 7.011-7.01V7.01A7.01 7.01 0 0 0 30.027 0H7.01Zm16.535 3.968h4.762a5.026 5.026 0 0 1 5.026 5.027v19.047a5.026 5.026 0 0 1-5.026 5.027h-4.762a5.026 5.026 0 0 1-5.027-5.027V8.995a5.026 5.026 0 0 1 5.027-5.027Z" clip-rule="evenodd"/><path fill="#000" d="M50.488 34.593V22.441h12.264v-4.879H50.488V9.036h13.428V4.045h-19.47v30.548h6.042ZM66.926 34.593h5.886V10.848h-5.886v23.745Zm-.403-29.63c0 .91.329 1.656.985 2.238.657.566 1.44.85 2.35.85.925 0 1.708-.284 2.35-.85.656-.582.985-1.328.985-2.238 0-.925-.329-1.671-.985-2.238-.642-.582-1.425-.873-2.35-.873-.91 0-1.693.29-2.35.873-.656.567-.985 1.313-.985 2.238ZM87.592 38.957c-.865 0-1.626-.127-2.283-.38-.656-.239-1.193-.582-1.61-1.03a3.183 3.183 0 0 1-.83-1.477h-5.706a7.378 7.378 0 0 0 1.32 3.626c.762 1.089 1.888 1.954 3.38 2.596 1.492.656 3.372.984 5.64.984 1.342 0 2.663-.164 3.96-.492a10.748 10.748 0 0 0 3.56-1.544 8.072 8.072 0 0 0 2.55-2.798c.642-1.133.963-2.513.963-4.14V10.85h-5.819v3.49h-.246c-.314-.716-.799-1.357-1.455-1.924-.642-.582-1.417-1.037-2.327-1.365-.896-.343-1.888-.515-2.977-.515-1.805 0-3.386.425-4.744 1.276-1.358.85-2.417 2.104-3.178 3.76-.761 1.64-1.142 3.662-1.142 6.064v1.477c0 2.432.381 4.476 1.142 6.133.76 1.656 1.82 2.909 3.178 3.76 1.358.85 2.939 1.275 4.744 1.275.82 0 1.589-.097 2.305-.291a7.412 7.412 0 0 0 1.947-.806 6.217 6.217 0 0 0 1.477-1.186c.418-.462.739-.947.963-1.454h.246v3.379c0 1.596-.448 2.835-1.343 3.715-.895.88-2.133 1.32-3.715 1.32Zm.134-23.722c1 0 1.865.261 2.596.783.731.522 1.298 1.276 1.701 2.26.418.985.627 2.171.627 3.559v1.387c0 1.403-.202 2.596-.604 3.581-.388.985-.955 1.738-1.701 2.26-.731.523-1.604.784-2.619.784-1.044 0-1.947-.254-2.708-.761-.746-.522-1.32-1.276-1.723-2.26-.403-1-.604-2.201-.604-3.604v-1.387c0-1.433.201-2.633.604-3.603.403-.985.977-1.731 1.723-2.238.761-.508 1.664-.761 2.708-.761Z"/></svg>
